X: 42524
T: Wheels Of The World, The
R: jig
M: 6/8
K: Gmajor
FDD ADD|BGB cBA|Bcd ecA|ABG FED|
FDD ADD|BGB c3|Bcd ecA|AGF G3|
FDD ADD|BGB c3|Bcd ecA|ABG FED|
GFG A3|~B3 c3|Bcd ecA|AGF G2B||
def gdB|dBG c3|Bcd ecA|ABG AFD|
def gdB|dBG c3|Bcd ecA|AGF G2B|
def gdB|dBG c3|Bcd ecA|ABG FED|
GFG A3|~B3 c3|Bcd ecA|AGF G3||

